src/img/service-4.svg

<svg width="40" height="39" viewBox="0 0 40 39" fill="none" xmlns="http://www.w3.org/2000/svg">
<rect y="19" width="20" height="20" rx="8" fill="#3ED9B0"/>
<path d="M10.1359 32.2213L8.92651 32.3725L9.53589 37.2475C9.55433 37.3948 9.62595 37.5304 9.7373 37.6287C9.84864 37.727 9.99205 37.7813 10.1406 37.7813H18.6718V36.5625H10.6785L10.1359 32.2213Z" fill="#333333"/>
<path d="M26.9306 5.42003L29.1175 6.51347L29.6042 8.46034L28.4941 10.6805L27.2834 12.7992L28.3416 13.4039L29.3125 11.7048L32.0781 12.6267V13.4063H33.2969V12.2624L33.8718 9.96274L34.1657 9.37496L35.9577 10.3786C36.1432 10.4824 36.3526 10.536 36.5652 10.5339C36.7778 10.5318 36.9861 10.4742 37.1695 10.3667C37.3529 10.2592 37.505 10.1056 37.6107 9.92113C37.7164 9.73668 37.772 9.52779 37.772 9.31521V8.98966C37.7748 8.10932 37.5124 7.24854 37.0189 6.51951C36.5254 5.79049 35.8238 5.22704 35.0054 4.9026L32.9696 4.08785L32.9672 4.08684L30.5001 3.09999L28.085 1.89247C28.0034 1.85166 27.9137 1.8297 27.8224 1.82821C27.7312 1.82672 27.6408 1.84574 27.5579 1.88387C27.475 1.922 27.4017 1.97826 27.3435 2.0485C27.2852 2.11874 27.2435 2.20117 27.2213 2.2897L26.612 4.7272C26.5783 4.8617 26.5915 5.00365 26.6495 5.12962C26.7074 5.25559 26.8066 5.35803 26.9306 5.42003ZM29.8905 10.6128L30.5443 9.30528L32.5767 10.1183L32.2559 11.4013L29.8905 10.6128ZM36.5532 8.98966V9.31521L35.5803 8.77037C35.682 8.58815 35.7351 8.38283 35.7345 8.17416C35.7352 7.62296 35.6328 7.0765 35.4326 6.56294C35.785 6.86129 36.0679 7.23309 36.2615 7.65229C36.455 8.07148 36.5546 8.52793 36.5532 8.98966ZM32.5145 5.21836L32.5145 5.21844L32.5191 5.22029C33.1099 5.45541 33.6163 5.86288 33.9724 6.38969C34.3285 6.9165 34.5178 7.53828 34.5158 8.17416L34.204 7.99957C34.1321 7.9593 34.0528 7.93403 33.9708 7.9253C33.8888 7.91658 33.8059 7.92457 33.7272 7.94879C33.6484 7.97302 33.5753 8.01298 33.5124 8.06625C33.4495 8.11953 33.3981 8.18501 33.3612 8.25873L33.0026 8.97599L30.7656 8.08119L30.2687 6.09375L30.6718 4.48131L32.5145 5.21836ZM28.2195 3.32226L29.5403 3.98269L29.2337 5.20899L27.9128 4.54856L28.2195 3.32226Z" fill="#333333"/>
<path d="M19.549 13.4254L20.7672 13.3871C20.7461 12.7024 20.6049 12.0267 20.3502 11.3907C20.245 11.1282 20.2192 10.8406 20.276 10.5635C20.3329 10.2865 20.4699 10.0322 20.6701 9.83242L21.9712 8.53125H23.9039L25.2051 9.83242C25.4052 10.0322 25.5423 10.2865 25.5991 10.5635C25.656 10.8406 25.6302 11.1282 25.525 11.3907C25.4216 11.65 25.3368 11.9162 25.2713 12.1875H22.5815V13.4062H25.6284V13.4035L26.3261 13.4254C26.3429 12.8828 26.4547 12.3473 26.6565 11.8434C26.8505 11.3595 26.8981 10.8292 26.7932 10.3185C26.6884 9.80773 26.4359 9.33906 26.067 8.97065L24.7657 7.66944V5.48438C24.7657 5.32276 24.7015 5.16776 24.5872 5.05348C24.4729 4.9392 24.3179 4.875 24.1563 4.875H21.7188C21.5572 4.875 21.4022 4.9392 21.2879 5.05348C21.1737 5.16776 21.1095 5.32276 21.1095 5.48438V7.66944L19.8082 8.97065C19.4393 9.33906 19.1867 9.80774 19.0819 10.3185C18.9771 10.8292 19.0246 11.3595 19.2186 11.8434C19.4205 12.3473 19.5323 12.8828 19.549 13.4254ZM23.547 6.09375V7.3125H22.3282V6.09375H23.547Z" fill="#333333"/>
<path d="M10.1406 9.14062H13.7969C13.9585 9.14062 14.1135 9.07642 14.2278 8.96213L16.4577 6.73222L17.1589 10.4717L18.3568 10.2471L17.4427 5.37209L17.4411 5.37238C17.4168 5.23205 17.3434 5.10496 17.2339 5.01383C17.1245 4.9227 16.9862 4.87349 16.8438 4.875H16.7506L16.2261 1.72793C16.2024 1.58564 16.129 1.45639 16.0189 1.36315C15.9088 1.26992 15.7692 1.21875 15.625 1.21875H11.9688C11.8245 1.21875 11.6849 1.26992 11.5749 1.36315C11.4648 1.45639 11.3914 1.58564 11.3676 1.72793L10.7773 5.27006L9.00868 8.21771C8.95199 8.31245 8.92214 8.42084 8.92232 8.53125H8.92188V10.3594H10.1406V9.14062ZM12.485 2.4375H15.1088L15.5688 5.19788C15.0323 5.51546 14.4203 5.68302 13.7969 5.68302C13.1734 5.68302 12.5614 5.51546 12.0249 5.19788L12.485 2.4375ZM11.5602 6.33419C12.247 6.70624 13.0158 6.90082 13.7969 6.90025C14.0807 6.89997 14.364 6.87416 14.6432 6.82311L13.5445 7.92188H10.6075L11.5602 6.33419Z" fill="#333333"/>
<path d="M14.0925 29.1632C14.191 29.2222 14.3042 29.2523 14.419 29.2498C14.5338 29.2474 14.6457 29.2126 14.7416 29.1494C14.8375 29.0862 14.9136 28.9972 14.9611 28.8926C15.0087 28.788 15.0257 28.6722 15.0103 28.5584L13.6758 18.7748C13.6261 18.4096 13.655 18.038 13.7608 17.685C13.8666 17.3319 14.0468 17.0056 14.2891 16.7279C14.5315 16.4503 14.8305 16.2277 15.166 16.0752C15.5016 15.9227 15.8659 15.8438 16.2344 15.8437H35.7344C35.896 15.8437 36.051 15.9079 36.1653 16.0222C36.2796 16.1365 36.3438 16.2915 36.3438 16.4531C36.3438 16.6147 36.2796 16.7697 36.1653 16.884C36.051 16.9983 35.896 17.0625 35.7344 17.0625H15.0157V18.2812H34.4347L33.0731 29.1744L34.2825 29.3256L35.663 18.2812H35.7344C36.2193 18.2812 36.6843 18.0886 37.0271 17.7458C37.3699 17.403 37.5626 16.938 37.5626 16.4531C37.5626 15.9683 37.3699 15.5033 37.0271 15.1604C36.6843 14.8176 36.2193 14.625 35.7344 14.625H16.2344C15.6919 14.6251 15.1558 14.7413 14.6619 14.9658C14.1681 15.1903 13.728 15.5179 13.3713 15.9266C13.0145 16.3353 12.7494 16.8156 12.5937 17.3352C12.438 17.8549 12.3953 18.4019 12.4685 18.9394L13.6499 27.6009C12.1553 27.04 10.5067 27.0473 9.01714 27.6214L9.77581 19.2593C9.87401 18.1685 10.2657 17.1246 10.9093 16.2384C11.5529 15.3522 12.4244 14.6567 13.4313 14.2259L13.4808 14.2045C13.7673 14.0807 14.0759 14.0164 14.388 14.0156H14.4063V12.7969H14.388C13.9109 12.7972 13.4388 12.8952 13.0009 13.0848L12.9514 13.1054C11.7424 13.6227 10.6959 14.4577 9.92309 15.5217C9.15023 16.5857 8.67978 17.8391 8.56163 19.1488L7.70546 28.5858C7.70394 28.6041 7.70318 28.6223 7.70318 28.6406V29.9523L7.56151 29.9759C6.81452 30.1023 6.04752 30.033 5.33531 29.7747C4.6231 29.5164 3.99 29.0779 3.49773 28.502L5.84154 19.9075C6.61048 17.0791 8.19843 14.541 10.4058 12.6125C10.8452 12.2281 11.3602 11.94 11.9177 11.7666C12.4752 11.5933 13.0628 11.5387 13.6428 11.6062C14.2227 11.6737 14.782 11.8619 15.2848 12.1587C15.7876 12.4555 16.2226 12.8542 16.562 13.3293L16.8705 13.7604L17.8622 13.052L17.5537 12.6209C17.1155 12.0074 16.5537 11.4924 15.9044 11.1091C15.2551 10.7258 14.5328 10.4828 13.7839 10.3956C13.035 10.3084 12.2761 10.379 11.5561 10.6029C10.8362 10.8268 10.1711 11.1989 9.60367 11.6954C7.21557 13.7815 5.4975 16.527 4.66546 19.5868L2.24013 28.4807C2.21578 28.5701 2.21217 28.664 2.2296 28.7551C2.24703 28.8462 2.28502 28.9321 2.34068 29.0062C2.95765 29.8313 3.78995 30.4704 4.74626 30.8535C5.70256 31.2365 6.74592 31.3488 7.76183 31.1779L8.4131 31.0697C8.5553 31.046 8.68447 30.9725 8.77763 30.8625C8.8708 30.7524 8.92192 30.6129 8.92193 30.4687V28.9986C9.72604 28.582 10.6235 28.3784 11.5286 28.4072C12.4338 28.436 13.3165 28.6963 14.0925 29.1632Z" fill="#333333"/>
<path d="M38.1719 30.4688H20.5C20.3384 30.4688 20.1834 30.533 20.0691 30.6472C19.9548 30.7615 19.8906 30.9165 19.8906 31.0781V37.1719C19.8906 37.3335 19.9548 37.4885 20.0691 37.6028C20.1834 37.717 20.3384 37.7812 20.5 37.7812H38.1719C38.3335 37.7812 38.4885 37.717 38.6028 37.6028C38.717 37.4885 38.7812 37.3335 38.7812 37.1719V31.0781C38.7812 30.9165 38.717 30.7615 38.6028 30.6472C38.4885 30.533 38.3335 30.4688 38.1719 30.4688ZM30.8594 36.5625H21.1094V31.6875H30.8594V36.5625ZM37.5625 36.5625H32.0781V31.6875H37.5625V36.5625Z" fill="#333333"/>
<path d="M22.9375 34.125C23.274 34.125 23.5469 33.8522 23.5469 33.5156C23.5469 33.1791 23.274 32.9062 22.9375 32.9062C22.601 32.9062 22.3281 33.1791 22.3281 33.5156C22.3281 33.8522 22.601 34.125 22.9375 34.125Z" fill="#333333"/>
<path d="M25.375 35.3438C25.7115 35.3438 25.9844 35.0709 25.9844 34.7344C25.9844 34.3978 25.7115 34.125 25.375 34.125C25.0385 34.125 24.7656 34.3978 24.7656 34.7344C24.7656 35.0709 25.0385 35.3438 25.375 35.3438Z" fill="#333333"/>
<path d="M29.0312 35.3438C29.3678 35.3438 29.6406 35.0709 29.6406 34.7344C29.6406 34.3978 29.3678 34.125 29.0312 34.125C28.6947 34.125 28.4219 34.3978 28.4219 34.7344C28.4219 35.0709 28.6947 35.3438 29.0312 35.3438Z" fill="#333333"/>
<path d="M35.7344 34.125C36.0709 34.125 36.3438 33.8522 36.3438 33.5156C36.3438 33.1791 36.0709 32.9062 35.7344 32.9062C35.3978 32.9062 35.125 33.1791 35.125 33.5156C35.125 33.8522 35.3978 34.125 35.7344 34.125Z" fill="#333333"/>
<path d="M33.9062 35.3438C34.2428 35.3438 34.5156 35.0709 34.5156 34.7344C34.5156 34.3978 34.2428 34.125 33.9062 34.125C33.5697 34.125 33.2969 34.3978 33.2969 34.7344C33.2969 35.0709 33.5697 35.3438 33.9062 35.3438Z" fill="#333333"/>
<path d="M27.2031 34.125C27.5397 34.125 27.8125 33.8522 27.8125 33.5156C27.8125 33.1791 27.5397 32.9062 27.2031 32.9062C26.8666 32.9062 26.5938 33.1791 26.5938 33.5156C26.5938 33.8522 26.8666 34.125 27.2031 34.125Z" fill="#333333"/>
<path d="M24.7656 29.25H29.0313V28.6406C29.0312 28.5203 28.9956 28.4027 28.9289 28.3026C28.6338 27.8617 28.4763 27.3431 28.4763 26.8125C28.4763 26.2819 28.6338 25.7633 28.9289 25.3224C28.9885 25.233 29.0234 25.1295 29.0301 25.0222C29.0368 24.915 29.015 24.8079 28.9669 24.7119L27.7482 22.2744C27.6976 22.1731 27.6198 22.088 27.5235 22.0285C27.4272 21.969 27.3163 21.9375 27.2031 21.9375V20.1094C27.2031 19.9478 27.1389 19.7928 27.0246 19.6785C26.9104 19.5642 26.7554 19.5 26.5938 19.5H24.1563C23.9946 19.5 23.8396 19.5642 23.7254 19.6785C23.6111 19.7928 23.5469 19.9478 23.5469 20.1094V21.9375C23.4337 21.9375 23.3228 21.969 23.2265 22.0285C23.1303 22.088 23.0525 22.1731 23.0019 22.2744L21.7831 24.7119C21.735 24.8079 21.7133 24.915 21.7199 25.0222C21.7266 25.1295 21.7615 25.233 21.8211 25.3224C22.1162 25.7633 22.2737 26.2819 22.2737 26.8125C22.2737 27.3431 22.1162 27.8617 21.8211 28.3026C21.7544 28.4027 21.7188 28.5203 21.7188 28.6406V29.25H22.9375V28.8168C23.286 28.2365 23.4772 27.5754 23.4922 26.8986C23.5071 26.2219 23.3453 25.5529 23.0228 24.9578L23.9235 23.1562H26.8265L27.4359 24.375H24.7656V25.5938H27.4545C27.1933 26.3853 27.1934 27.2398 27.4548 28.0312H24.7656V29.25ZM24.7656 20.7188H25.9844V21.9375H24.7656V20.7188Z" fill="#333333"/>
</svg>

<svg width="40" height="39" viewBox="0 0 40 39" xmlns="http://www.w3.org/2000/svg" fill="none"><rect y="19" width="20" height="20" rx="8" fill="#3ED9B0"/><path d="M10.136 32.221l-1.209.151.609 4.875c.018.147.09.283.201.381.111.098.255.153.403.153h8.531v-1.219h-7.993l-.543-4.341zM26.931 5.42l2.187 1.093.487 1.947-1.11 2.22-1.211 2.119 1.058.605.971-1.699 2.766.922v.78h1.219v-1.144l.575-2.3.294-.588 1.792 1.004c.185.104.395.157.607.155.213-.002.421-.06.604-.167.183-.107.336-.261.441-.446.106-.184.161-.393.161-.606v-.326c.003-.88-.26-1.741-.753-2.47-.494-.729-1.195-1.292-2.014-1.617l-2.036-.815-.002-.001-2.467-.987-2.415-1.208c-.082-.041-.171-.063-.263-.064-.091-.001-.182.018-.264.056-.083.038-.156.094-.214.165-.058.07-.1.153-.122.241l-.609 2.438c-.034.135-.02.276.038.402.058.126.157.228.281.29zm2.96 5.193l.654-1.308 2.032.813-.321 1.283-2.365-.789zm6.663-1.623v.326l-.973-.545c.102-.182.155-.388.154-.596.001-.551-.102-1.098-.302-1.611.352.298.635.67.829 1.089.194.419.293.876.292 1.337zm-4.039-3.771l.005.002c.591.235 1.097.643 1.453 1.169.356.527.545 1.149.543 1.784l-.312-.175c-.072-.04-.151-.066-.233-.074-.082-.009-.165-.001-.244.023-.079.024-.152.064-.215.117-.063.053-.114.119-.151.192l-.359.717-2.237-.895-.497-1.987.403-1.612 1.843.737zm-4.295-1.896l1.321.66-.307 1.226-1.321-.66.307-1.226zM19.549 13.425l1.218-.038c-.021-.685-.162-1.36-.417-1.996-.105-.263-.131-.55-.074-.827.057-.277.194-.531.394-.731l1.301-1.301h1.933l1.301 1.301c.2.2.337.454.394.731.057.277.031.565-.074.827-.103.259-.188.525-.254.797h-2.69v1.219h3.047v-.003l.698.022c.017-.543.129-1.078.33-1.582.194-.484.242-1.014.137-1.525-.105-.511-.357-.979-.726-1.348l-1.301-1.301v-2.185c0-.162-.064-.317-.178-.431-.114-.114-.269-.178-.431-.178h-2.438c-.162 0-.317.064-.431.178-.114.114-.178.269-.178.431v2.185l-1.301 1.301c-.369.368-.622.837-.726 1.348-.105.511-.057 1.041.137 1.525.202.504.314 1.039.33 1.582zm3.998-7.332v1.219h-1.219v-1.219h1.219zM10.141 9.141h3.656c.162 0 .317-.064.431-.178l2.23-2.23.701 3.739 1.198-.225-.914-4.875h-.002c-.024-.14-.098-.267-.207-.359-.109-.091-.248-.14-.39-.139h-.093l-.524-3.147c-.024-.142-.097-.272-.207-.365-.11-.093-.25-.144-.394-.144h-3.656c-.144 0-.284.051-.394.144-.11.093-.183.222-.207.365l-.59 3.542-1.769 2.948c-.057.095-.087.203-.086.314v1.828h1.219v-1.219zm2.344-6.703h2.624l.46 2.76c-.537.318-1.149.485-1.772.485s-1.236-.168-1.772-.485l.46-2.76zm-.925 3.897c.687.372 1.456.567 2.237.566.284 0 .567-.026.846-.077l-1.099 1.099h-2.937l.953-1.588zM14.092 29.163c.099.059.212.089.327.087.115-.002.227-.037.323-.1s.172-.152.22-.257c.048-.105.065-.22.049-.334l-1.335-9.784c-.05-.365-.021-.737.085-1.09.106-.353.286-.679.528-.957.242-.278.541-.5.877-.653.336-.152.7-.231 1.068-.231h19.5c.162 0 .317.064.431.179.114.114.178.269.178.431 0 .162-.064.317-.178.431-.114.114-.269.178-.431.178h-20.719v1.219h19.419l-1.362 10.893 1.209.151 1.38-11.044h.071c.485 0 .95-.193 1.293-.535.343-.343.536-.808.536-1.293 0-.485-.193-.95-.536-1.293-.343-.343-.808-.535-1.293-.535h-19.5c-.543 0-1.079.116-1.573.341-.494.225-.934.552-1.291.961-.357.409-.622.889-.778 1.409-.156.52-.198 1.067-.125 1.604l1.181 8.662c-1.495-.561-3.143-.554-4.633.021l.759-8.362c.098-1.091.49-2.135 1.133-3.021.644-.886 1.515-1.582 2.522-2.012l.05-.021c.287-.124.595-.188.907-.189h.018v-1.219h-.018c-.477 0-.949.098-1.387.288l-.05.021c-1.209.517-2.255 1.352-3.028 2.416-.773 1.064-1.243 2.317-1.361 3.627l-.856 9.437-.002.055v1.312l-.142.024c-.747.126-1.514.057-2.226-.201s-1.345-.697-1.838-1.273l2.344-8.595c.769-2.828 2.357-5.366 4.564-7.295.439-.384.954-.673 1.512-.846.557-.173 1.145-.228 1.725-.16.58.068 1.139.256 1.642.553.503.297.938.696 1.277 1.171l.308.431.992-.708-.309-.431c-.438-.614-1-1.129-1.649-1.512s-1.372-.626-2.121-.713c-.749-.087-1.508-.017-2.228.207-.72.224-1.385.596-1.952 1.092-2.388 2.086-4.106 4.832-4.938 7.891l-2.425 8.894c-.024.089-.028.183-.011.274.017.091.055.177.111.251.617.825 1.449 1.464 2.406 1.847.956.383 2 .495 3.016.324l.651-.108c.142-.024.271-.097.365-.207.093-.11.144-.25.144-.394v-1.47c.804-.417 1.702-.62 2.607-.591.905.029 1.788.289 2.564.756zM38.172 30.469h-17.672c-.162 0-.317.064-.431.178-.114.114-.178.269-.178.431v6.094c0 .162.064.317.178.431.114.114.269.178.431.178h17.672c.162 0 .317-.064.431-.178.114-.114.178-.269.178-.431v-6.094c0-.162-.064-.317-.178-.431-.114-.114-.269-.178-.431-.178zm-7.313 6.094h-9.75v-4.875h9.75v4.875zm6.703 0h-5.484v-4.875h5.484v4.875zM22.938 34.125c.337 0 .609-.273.609-.609 0-.337-.273-.609-.609-.609-.337 0-.609.273-.609.609 0 .337.273.609.609.609zM25.375 35.344c.337 0 .609-.273.609-.609 0-.337-.273-.609-.609-.609-.337 0-.609.273-.609.609 0 .337.273.609.609.609zM29.031 35.344c.337 0 .609-.273.609-.609 0-.337-.273-.609-.609-.609-.336 0-.609.273-.609.609 0 .337.273.609.609.609zM35.734 34.125c.337 0 .609-.273.609-.609 0-.337-.273-.609-.609-.609-.337 0-.609.273-.609.609 0 .337.273.609.609.609zM33.906 35.344c.337 0 .609-.273.609-.609 0-.337-.273-.609-.609-.609-.337 0-.609.273-.609.609 0 .337.273.609.609.609zM27.203 34.125c.337 0 .609-.273.609-.609 0-.337-.273-.609-.609-.609-.337 0-.609.273-.609.609 0 .337.273.609.609.609zM24.766 29.25h4.266v-.609c0-.12-.036-.238-.102-.338-.295-.441-.453-.96-.453-1.49 0-.531.158-1.049.453-1.49.06-.089.095-.193.101-.3.007-.107-.015-.214-.063-.31l-1.219-2.438c-.051-.101-.128-.186-.225-.246-.096-.059-.207-.091-.32-.091v-1.828c0-.162-.064-.317-.178-.431-.114-.114-.269-.178-.431-.178h-2.438c-.162 0-.317.064-.431.178-.114.114-.178.269-.178.431v1.828c-.113 0-.224.032-.32.091s-.174.145-.225.246l-1.219 2.438c-.048.096-.07.203-.063.31.007.107.042.211.101.3.295.441.453.96.453 1.49 0 .531-.158 1.049-.453 1.49-.067.1-.102.218-.102.338v.609h1.219v-.433c.349-.58.54-1.241.555-1.918.015-.677-.147-1.346-.469-1.941l.901-1.802h2.903l.609 1.219h-2.67v1.219h2.689c-.261.791-.261 1.646 0 2.437h-2.689v1.219zm0-8.531h1.219v1.219h-1.219v-1.219z" fill="#333"/></svg>
